X:436
T: AUF BRUEDER AUF ZUM STREIT
N: E0357
O: Europa, Mitteleuropa, Deutschland, Bayern, Franken
R: historisches Lied, Krieg (1814)
M: 4/4
L: 1/8
K: Bb
F2 | B3AB2c2 | d4z2
c2 | e2d2c2B2 | Affff2
F2 | B3AB2c2 | d4z2
c2 | e2d2c2Bd | c4z2
AB | c2ccc2Bc | d2ddd2
AB | c2c2c2d2 | ccccc2
f2 | d2d2c2c2 | d4
f4 | d2dBc2cA | B4z2

